X: 018
M: 2/4
L: 1/8
K: G
d |\
e g2 e | d g2 d | c/B/c/d/ cB | A3 :|
|: A |\
d f2 e | f d2 A | d f2 e | d/=c/d/e/ dd |\

